img/white-quote.svg

<svg width="45" height="33" viewBox="0 0 45 33" fill="none" xmlns="http://www.w3.org/2000/svg">
<path d="M44.2502 0.179932C43.0369 5.2066 41.8235 10.6666 40.6102 16.5599C39.3969 22.3666 38.4435 27.5233 37.7502 32.0299H25.4002L24.4902 30.5999C25.7035 26.0066 27.3502 20.9799 29.4302 15.5199C31.5102 9.97327 33.6335 4.85993 35.8002 0.179932H44.2502ZM20.2002 0.179932C18.9869 5.2066 17.7735 10.6666 16.5602 16.5599C15.3469 22.3666 14.3935 27.5233 13.7002 32.0299H1.4802L0.700195 30.5999C1.91353 26.0066 3.51686 20.9799 5.5102 15.5199C7.5902 9.97327 9.71353 4.85993 11.8802 0.179932H20.2002Z" fill="white"/>
</svg>

<svg width="45" height="33" fill="none" xmlns="http://www.w3.org/2000/svg"><path d="M44.25.18a498.531 498.531 0 00-3.64 16.38c-1.213 5.807-2.166 10.963-2.86 15.47H25.4l-.91-1.43c1.213-4.593 2.86-9.62 4.94-15.08C31.51 9.973 33.633 4.86 35.8.18h8.45zM20.2.18a498.531 498.531 0 00-3.64 16.38c-1.213 5.807-2.166 10.963-2.86 15.47H1.48L.7 30.6c1.214-4.593 2.817-9.62 4.81-15.08C7.59 9.973 9.714 4.86 11.88.18h8.32z" fill="#fff"/></svg>
